X: 2
T:Westering Home
M:3/4
R:waltz
L:1/4
K:D
F|"D" A>BA|"D"AFA|"Bm"dde|"D"f3|"G"g>fe|"D"fed|"Em"BB>A|"A7"A3|
"D"A>BA|AFA|"Bm"dde|"D"f3|"D"a>fd|"A7"f2e|"D"d3|d3||
"D"a>fd|"D"d>ef|"A"e>fe|"A"A3|"D"A>Bc|"Bm"def|"Em"g>fg|"A"e3|
"D"a>fd|"D"d>ef|"Em"e>fe|"A"A2A|"D"f>ed|"A"ffe|"D"d3|d2||
